!!!COM: Bach, Johann Sebastian
!!!OPR: Joh. Seb. Bachs vierstimmige Choralgesänge
!!!XEN: Four-part Chorales
!!!OTL: 23. Christe, du Beistand
!!!SCT: BWV 275
!!!SCA: Thematisch-systematisches Verzeichnis der musikalischen Werke Johann Sebastian Bach: Bach-Werke-Verzeichnis (Schmieder)
!!!YOR: Bach Gesellschaft Edition xxxix
!!!ENC: Steven Rasmussen
!!!CDT: 1685/3//-1750/7/28/
!!!OCY: Deutschland
!!!YEC: Copyright (c) 1994, 2000 Center for Computer Assisted Research in the Humanities
!!!YEM: Rights to all derivative editions reserved
!!!YEN: United States of America
**kern	**silbe	**kern	**kern	**kern
*I:[SOPRANO]	*I:[SOPRANO]	*I:[ALTO]	*I:[TENORE]	*I:[BASSO]
*clefG2	*	*clefG2	*clefGv2	*clefF4
*k[]	*	*k[]	*k[]	*k[]
*a:	*	*a:	*a:	*a:
*M4/4	*	*M4/4	*M4/4	*M4/4
4d	Chri-	4A	8FL	8DL
.	.	.	8GJ	8EJ
=1	=1	=1	=1	=1
4d	-ste,	4A	4A	8FL
.	.	.	.	8EJ
4e	du	4e	4A	8DL
.	.	.	.	8C#J
2f	Bei-	4e	2A	8DL
.	.	.	.	8E
.	.	4d	.	8F
.	.	.	.	8DJ
=2	=2	=2	=2	=2
2e;	-stand	2c#;	2A;	2AA;
4a	dei-	4e	4A	8CL
.	.	.	.	8BBJ
4b	-ner	4e	4e	8AAL
.	.	.	.	8GG#J
=3	=3	=3	=3	=3
4cc	Kreuz-	4a	4e	8AAL
.	.	.	.	8CJ
8ddL	-ge-	4a	8dL	8FL
8ccJ	.	.	8eJ	8EJ
2b	-mei-	4a	4f	8DL
.	.	.	.	8BBJ
.	.	4g#	8eL	4E
.	.	.	8dJ	.
=4	=4	=4	=4	=4
2a;	-ne,	2e;	2c;	2AA;
4r	.	4r	4r	4r
4cc	ei-	4a	4e	4AA
=5	=5	=5	=5	=5
4b	-le,	8aL	8fL	8DL
.	.	8gJ	16eL	8EJ
.	.	.	16dJJ	.
4a	mit	8fL	4c	4F
.	.	8eJ	.	.
4g	HÃ¼lf'	4d	4B	4F
4g	und	4g	4c	4E
=6	=6	=6	=6	=6
4a	Ret-	8gL	4c	4F
.	.	8fJ	.	.
4g	-tung	8fL	4c	4C
.	.	8eJ	.	.
4f	uns	8eL	4A	4D
.	.	8dJ	.	.
4f	er-	8cL	4A	8AAL
.	.	8dJ	.	8BB-J
=7	=7	=7	=7	=7
2e	-schei-	2c	8GL	2C
.	.	.	8AJ	.
.	.	.	4B-	.
4f;	-ne;	4c;	4A;	4FF;
4e	steu-	8c#L	4A	4AA
.	.	8dJ	.	.
=8	=8	=8	=8	=8
4e	-re	4e	4A	4C#
4f	den	8eL	4A	8DL
.	.	8dJ	.	8CnJ
2g	Fein-	8dL	2G	8BBL
.	.	8c	.	8AA
.	.	8d	.	8BB
.	.	8BJ	.	8GGJ
=9	=9	=9	=9	=9
2e;	-den:	2c;	2G;	2C;
4a	ih-	4a	4e	4C
4b	-re	4a	4f	4D
=10	=10	=10	=10	=10
4cc	Blut-	8aL	4e	4E
.	.	8g#J	.	.
8ddL	-ge-	4a	8dL	8FL
8ccJ	.	.	8eJ	8EJ
2b	-tich-	4a	4f	4D
.	.	4g#	8eL	4E
.	.	.	8dJ	.
=11	=11	=11	=11	=11
2a;	-te	2e;	2c;	2AA;
4r	.	4r	4r	4r
4f#	ma-	4c	4A	4AA
=12	=12	=12	=12	=12
4g	-che	4d	4.G	4BB-
4g	zu	4d	.	4BBn
.	.	.	8F	.
4g	nich-	4e-	8E-L	4C
.	.	.	8B-	.
4f#	.	4d	8A	4D
.	.	.	8cJ	.
=13	=13	=13	=13	=13
2g;	-te,	2d;	2B-;	2GG;
4r	.	4r	4r	4r
4e	ma-	4c#	4A	4AA
=14	=14	=14	=14	=14
4f	-che	4d	4A	8DL
.	.	.	.	8CJ
4g	zu	4d	8GL	8BB-L
.	.	.	8B-J	8GGJ
2et	nich-	4d	8AL	2AA
.	.	.	8E	.
.	.	4c#	8A	.
.	.	.	8GJ	.
=15	=15	=15	=15	=15
2.d;	-te.	2.A;	2.F#;	2.D;
==|!	==|!	==|!	==|!	==|!
*-	*-	*-	*-	*-
!!!RWG: Key is interpreted using the Humdrum key tool.
!!!END: 1994/05/11
!!!EMD: Converted from MuseData to Humdrum Dec 19, 2000, by Andreas Kornstaedt using muse2kern.
!!!EED: Craig Stuart Sapp
!!!EEV: 2024/03/31
!!!ONB: Some non-unicode characters
